svgs/sharp-light/hand-fist.svg

<svg xmlns="http://www.w3.org/2000/svg" viewBox="0 0 448 512"><!--! Font Awesome Pro 6.4.0 by @fontawesome - https://fontawesome.com License - https://fontawesome.com/license (Commercial License) Copyright 2023 Fonticons, Inc. --><path d="M176 32V64 192h48V64 32H176zM144 192V64H96V192h48zm-80 0V64 32H96h48V0h32 48 32V32h48 32V64 96h48 32v32 48 16 32 32c0 49.9-25.4 93.9-64 119.8V496v16H320V496 366.9v-9.2l8-4.6c33.5-19.4 56-55.6 56-97H336 304V240H256v16 32 16H240 144 128V272h16 80V240 224H64v32 16c0 48.3 35.8 88.4 82.3 95l13.7 2v13.9V496v16H128V496 396c-55.2-14.2-96-64.3-96-124V256 208 192H48 64zm192 0v16h48V128 96 64H256V192zm128-16V128H336v80 16h48V192 176z"/></svg>

<svg xmlns="http://www.w3.org/2000/svg" viewBox="0 0 448 512"><!--! Font Awesome Pro 6.6.0 by @fontawesome - https://fontawesome.com License - https://fontawesome.com/license (Commercial License) Copyright 2024 Fonticons, Inc. --><path d="M176 32l0 32 0 128 48 0 0-128 0-32-48 0zM144 192l0-128L96 64l0 128 48 0zm-80 0L64 64l0-32 32 0 48 0 0-32 32 0 48 0 32 0 0 32 48 0 32 0 0 32 0 32 48 0 32 0 0 32 0 48 0 16 0 32 0 32c0 49.9-25.4 93.9-64 119.8L352 496l0 16-32 0 0-16 0-129.1 0-9.2 8-4.6c33.5-19.4 56-55.6 56-97l-48 0-32 0 0-16-48 0 0 16 0 32 0 16-16 0-96 0-16 0 0-32 16 0 80 0 0-32 0-16L64 224l0 32 0 16c0 48.3 35.8 88.4 82.3 95l13.7 2 0 13.9L160 496l0 16-32 0 0-16 0-100c-55.2-14.2-96-64.3-96-124l0-16 0-48 0-16 16 0 16 0zm192 0l0 16 48 0 0-80 0-32 0-32-48 0 0 128zm128-16l0-48-48 0 0 80 0 16 48 0 0-32 0-16z"/></svg>
